X:4258
T:Miss Margaret Gordon
O:england
M:4/4
L:1/8
Q:128
K:G
|:dB/G3/2G3/2A/F3/2A/c/A3/2B/G3/2G3/2A/[B3/2G3/2|c/d/g3/2B/G3/2G3/2A/F3/
2|A/c/d3/2B/G3/2A3/2^F/G2Gd
|:zD4C4D4z4D4C4D2C2[D2B,2[DB,z
W: Gm F Gm Gm F Gm D7 Gm
B/G3/2G3/2A/F3/2 A/c/A3/2B/G3/2G3/2A/[B3/2 G3/2c/d/g3/2|B/G3/2G3/2A/ F3/
2A/c/d3/2|B/G3/2A3/2^F/ G2Gd|
D4 C4|D4 z4|D4 C4|D2C2 [D2B,2|[DB,z
W: Gm F Gm Gm F Gm D7 Gm
g/d3/2d3/2f/A/F3/2c/A3/2g/d3/2d3/2=e/f/g3/2a/g3/2f/d3/2d3/2f/F3/2A/c/d3/
2B GA^FG2G^f
B/G3/2G3/2B/F/z3/2F2B/G3/2G2A2c2B/G3/2G3/2B/C2F2D2C2B,2z2
W: Gm F Gm F Gm F Gm D7 Gm
g/d3/2d3/2f/A/F3/2c/A3/2g/d3/2d3/2=e/f3/2a/g/a3/2f3/2g/d/g3/2c/f3/2A/c3/
2d3/2B/d/c/B/A/G2G:|
B/G3/2 G3/2B/F/z3/2|F2B/G3/2 G2A2|c2A2 G2F2|C2G2 F3/2C/B,2|B,:|
W: Gm F Gm F F Gm F Gm D7 Gm


